X:1
T:352 - Seguindo a Cristo
T:Letra: William Orcutt Cushing (1823-1902)
T:Trad.: Henry Maxwell Wright (1849-1931)
T:MÃºsica: Robert Lowry (1826-1899)
M:4/4
L:1/8
Q:1/4=100
K:Abmaj
V:1
"Ab"c2 e2 c>B A2| "Db"AB AF "Ab"F2 E2| "Eb"GG G2 "Ab"AA A2| "Eb"Bc dc B4 | "Ab"c2 e2 c>B A2| "Db"AB AF "Ab"F2 E2 | "Db"FG "Eb"AB "Ab"cd "Db"ed| "Ab/Eb"c2 y"Eb7"B2 "Ab"A4 |]
w: Sem-pre, sem_pre se-gui-rei a Cris-to; Se-ja por on-de for, eu o se-gui-rei. Sem-pre, sem_pre se-gui-rei a Cris-to; Se-ja, pois, por on-de for eu se-gui-rei.
W: 
W:
W:
W: Sempre, sempre seguirei a Cristo;
W: Seja por onde for, eu o seguirei.
W: Sempre, sempre seguirei a Cristo;
W: Seja, pois, por onde for eu seguirei.
W:         
W: 				         
W: 

